src/lib/packages/icons/src/assets/filled/alarm-plus-alt.svg

<svg width="24" height="24" viewBox="0 0 24 24" fill="none" xmlns="http://www.w3.org/2000/svg">
<path d="M4.53005 3.53005L2.53005 5.53005C2.38405 5.67605 2.19202 5.75002 2.00002 5.75002C1.80802 5.75002 1.61599 5.67705 1.46999 5.53005C1.17699 5.23705 1.17699 4.76202 1.46999 4.46902L3.46999 2.46902C3.76299 2.17602 4.23803 2.17602 4.53103 2.46902C4.82403 2.76202 4.82305 3.23705 4.53005 3.53005ZM19.4751 5.53603C19.6211 5.67903 19.811 5.75002 20 5.75002C20.194 5.75002 20.3889 5.67505 20.5359 5.52505C20.8249 5.22905 20.8199 4.75401 20.5249 4.46401L18.5249 2.50405C18.2289 2.21405 17.7549 2.21904 17.4629 2.51504C17.1739 2.81104 17.1791 3.28607 17.4741 3.57607L19.4751 5.53603ZM12.5 17V19C12.5 19.462 12.5431 19.812 12.2271 19.908C11.8271 19.969 11.414 20 11 20C9.84102 20 8.74302 19.7489 7.75002 19.3059L5.53201 21.5301C5.38601 21.6761 5.193 21.75 5.001 21.75C4.81 21.75 4.61795 21.677 4.47195 21.531C4.17795 21.239 4.17799 20.763 4.46999 20.47L6.39797 18.5371C4.34497 17.0891 3.001 14.704 3.001 12C3.001 7.58002 6.581 4.00002 11.001 4.00002C15.421 4.00002 19.001 7.58002 19.001 12C19.001 12.479 18.667 12.5 18.667 12.5H17C14.18 12.5 12.5 14.18 12.5 17ZM11.75 8.04006C11.75 7.62606 11.414 7.29006 11 7.29006C10.586 7.29006 10.25 7.62606 10.25 8.04006V12.0401C10.25 12.4541 10.586 12.7901 11 12.7901C11.414 12.7901 11.75 12.4541 11.75 12.0401V8.04006ZM22 17V19C22 21 21 22 19 22H17C15 22 14 21 14 19V17C14 15 15 14 17 14H19C21 14 22 15 22 17ZM19.75 18C19.75 17.724 19.526 17.5 19.25 17.5H18.5V16.75C18.5 16.474 18.276 16.25 18 16.25C17.724 16.25 17.5 16.474 17.5 16.75V17.5H16.75C16.474 17.5 16.25 17.724 16.25 18C16.25 18.276 16.474 18.5 16.75 18.5H17.5V19.25C17.5 19.526 17.724 19.75 18 19.75C18.276 19.75 18.5 19.526 18.5 19.25V18.5H19.25C19.526 18.5 19.75 18.276 19.75 18Z" fill="currentColor"/>
</svg>

<svg xmlns="http://www.w3.org/2000/svg" width="24" height="24" fill="none"><path fill="currentColor" d="m4.53 3.53-2 2a.748.748 0 0 1-1.06 0 .75.75 0 0 1 0-1.061l2-2A.75.75 0 1 1 4.53 3.53Zm14.945 2.006a.748.748 0 0 0 1.06-.01.752.752 0 0 0-.01-1.062l-2-1.96a.751.751 0 0 0-1.05 1.072l2 1.96ZM12.5 17v2c0 .462.043.812-.273.908-.4.061-.813.092-1.227.092a7.954 7.954 0 0 1-3.25-.694L5.532 21.53a.75.75 0 0 1-1.062-1.06l1.928-1.933A7.998 7.998 0 0 1 11.001 4c4.42 0 8 3.58 8 8 0 .479-.334.5-.334.5H17c-2.82 0-4.5 1.68-4.5 4.5Zm-.75-8.96a.75.75 0 0 0-1.5 0v4a.75.75 0 0 0 1.5 0v-4ZM22 17v2c0 2-1 3-3 3h-2c-2 0-3-1-3-3v-2c0-2 1-3 3-3h2c2 0 3 1 3 3Zm-2.25 1a.5.5 0 0 0-.5-.5h-.75v-.75a.5.5 0 0 0-1 0v.75h-.75a.5.5 0 0 0 0 1h.75v.75a.5.5 0 0 0 1 0v-.75h.75a.5.5 0 0 0 .5-.5Z"/></svg>
